public/avatar/body/43.svg

<svg xmlns:xlink="http://www.w3.org/1999/xlink" height="82" width="84.85" xmlns="http://www.w3.org/2000/svg"><g transform="translate(37.4 42.25)"><use height="38" transform="translate(-11.95 -17.45)" width="32.05" xlink:href="#a"/><use height="21.6" transform="translate(-12.25 -17.95)" width="32.65" xlink:href="#b"/><use height="18.95" transform="translate(3.4 2.05)" width="17.15" xlink:href="#c"/><use height="18.95" transform="matrix(-1 0 0 1 4.4 2.05)" width="17.15" xlink:href="#c"/><use height="6.55" transform="translate(11.95 5.45)" width="7.15" xlink:href="#d"/></g><defs><use height="38" width="32.05" xlink:href="#e" id="a"/><use height="21.6" width="32.65" xlink:href="#f" id="b"/><use height="18.95" width="17.15" xlink:href="#g" id="c"/><use height="6.55" width="7.15" xlink:href="#h" id="d"/><linearGradient gradientTransform="matrix(.0041 -.0041 .0055 .0055 4.9 11.55)" gradientUnits="userSpaceOnUse" id="i" spreadMethod="pad" x1="-819.2" x2="819.2"><stop offset="0" stop-color="#01748f"/><stop offset=".255" stop-color="#09c"/><stop offset=".667" stop-color="#9ef2fe"/><stop offset="1" stop-color="#09c"/></linearGradient><linearGradient gradientTransform="matrix(-.003 -.0053 .007 -.004 -4.8 11.35)" gradientUnits="userSpaceOnUse" id="j" spreadMethod="pad" x1="-819.2" x2="819.2"><stop offset="0" stop-color="#01748f"/><stop offset=".255" stop-color="#09c"/><stop offset=".667" stop-color="#9ef2fe"/><stop offset="1" stop-color="#09c"/></linearGradient><path d="M27.35 7.4q2.15 4.15 3.55 8.75 1.45 4.7 1.15 9.5-.35 4.95-4.2 8.1-3.8 3.2-8.75 4.05l-2.6.2q-3.6 0-7.05-1.15-4.65-1.6-7.1-5.5Q-.2 27.4.05 23q.2-4.4 2-9.3Q3.85 8.75 7 5.05 10.1 1.3 14.7.1l1.8-.1q1.9.05 3.7.8 4.75 2.05 7.15 6.6" fill="#fff" fill-rule="evenodd" transform="translate(-.05)" id="e"/><path d="M31.9 20.6q-.3-2.25-1-4.45-1.4-4.6-3.55-8.75-2.4-4.55-7.15-6.6-2.65-1.1-5.5-.7Q10.1 1.3 7 5.05q-3.15 3.7-4.95 8.65Q.7 17.3.25 20.6" fill="none" stroke="#000" stroke-linecap="round" stroke-linejoin="round" transform="translate(.25 .5)" id="f"/><g id="g"><path d="m15.9 0 .25 1.8v3.85q-.25 3.2-1.9 5.65-4.3 3.1-8.6 3.3l1.6-1-.85-2.7 3.2-1-.25-4.8-3 1.5-3.4 1.65-1.25-1.6-1.65-2.1L0 4.6v-.4l.4.1L15.9 0M0 9.3v-.5l.75.05q.95-.85.95-2.2l1.25 1.6 3.4-1.65-4.7 8.35Q1.8 12.2.6 9.4L0 9.3m16.15-7.5-6.8 3.3 6.8-3.3" fill="#fff" fill-rule="evenodd" transform="translate(.5 .5)"/><path d="m1.65 14.95 4.7-8.35 3-1.5.25 4.8-3.2 1 .85 2.7-1.6 1L.2 17.95l1.45-3" fill="url(#i)" fill-rule="evenodd" transform="translate(.5 .5)"/><path d="M0 17.65V9.3l.6.1q1.2 2.8 1.05 5.55l-1.45 3-.2-.3M0 8.8V4.6l.05-.05 1.65 2.1q0 1.35-.95 2.2L0 8.8" fill="#01748f" fill-rule="evenodd" transform="translate(.5 .5)"/><path d="M.2 17.95H0v-.3l.2.3" fill="url(#j)" fill-rule="evenodd" transform="translate(.5 .5)"/><path d="m14.25 11.3-2.3 2.45q-3.8 3.2-8.75 4.05l-1.45.15H.2l5.45-3.35q4.3-.2 8.6-3.3" fill="#c4e1ff" fill-rule="evenodd" transform="translate(.5 .5)"/><path d="m15.9 0 .25 1.8v3.85q-.25 3.2-1.9 5.65l-2.3 2.45q-3.8 3.2-8.75 4.05l-1.45.15H.2" fill="none" stroke="#000" stroke-linecap="round" stroke-linejoin="round" transform="translate(.5 .5)"/><path d="m0 4.2.4.1L15.9 0M1.7 6.65.05 4.55 0 4.6m6.35 2-3.4 1.65-1.25-1.6m4.65-.05 3-1.5 6.8-3.3" fill="none" stroke="#adc0d6" stroke-linecap="round" stroke-linejoin="round" transform="translate(.5 .5)"/></g><g id="h" fill-rule="evenodd"><path d="M.45-.7Q-.05.4-1-.45q-.15-.4.1-.7l.25-.3.1-.05h.25v-.05q.65.1.75.7v.15m1.6-.65Q2.85-.85 2 0l-.3.15-.7-.4-.05-.3V-1q.2-.45.65-.5h.1v-.05l.35.2M.85 1.1q-.5 1.1-1.45.25-.15-.4.1-.7l.25-.3.1-.05H.1V.25q.65.1.75.7v.15" fill="#ffabff" transform="translate(3.6 3.35)"/><path d="M.45-.7v-.15q-.1-.6-.75-.7v.05h-.25l-.1.05-.25.3q-.25.3-.1.7Q-.05.4.45-.7m1.15-.8q-.45.05-.65.5v.45l.05.3.7.4L2 0q.85-.85.05-1.35Q3.25-1.1 3.5.3q.2 1.2-.95 1.1h-.2q.35.65-.65 1.65L.6 3.2l-1-.95q-.85.45-2.05.3l-.35-.2-.05-.3V1.6l.35-.45-1-.45-.1-.35q.25-1.55 1.95-1.7-.4-.7.55-1.45l1-.55q2.5.1 1.7 1.85M.85 1.1V.95Q.75.35.1.25V.3h-.25l-.1.05-.25.3q-.25.3-.1.7.95.85 1.45-.25" fill="#ff45cc" transform="translate(3.6 3.35)"/></g></defs></svg>

<?xml version="1.0" encoding="UTF-8" standalone="no"?>
<svg xmlns:xlink="http://www.w3.org/1999/xlink" height="82.0px" width="84.85px" xmlns="http://www.w3.org/2000/svg">
  <g transform="matrix(1.0, 0.0, 0.0, 1.0, 37.4, 42.25)">
    <use height="38.0" transform="matrix(1.0, 0.0, 0.0, 1.0, -11.95, -17.45)" width="32.05" xlink:href="#sprite0"/>
    <use height="21.6" transform="matrix(1.0, 0.0, 0.0, 1.0, -12.25, -17.95)" width="32.65" xlink:href="#sprite1"/>
    <use height="18.95" transform="matrix(1.0, 0.0, 0.0, 1.0, 3.4, 2.05)" width="17.15" xlink:href="#sprite2"/>
    <use height="18.95" transform="matrix(-1.0, 0.0, 0.0, 1.0, 4.4, 2.05)" width="17.15" xlink:href="#sprite2"/>
    <use height="6.55" transform="matrix(1.0, 0.0, 0.0, 1.0, 11.95, 5.45)" width="7.15" xlink:href="#sprite3"/>
  </g>
  <defs>
    <g id="sprite0" transform="matrix(1.0, 0.0, 0.0, 1.0, -0.05, 0.0)">
      <use height="38.0" transform="matrix(1.0, 0.0, 0.0, 1.0, 0.05, 0.0)" width="32.05" xlink:href="#shape0"/>
    </g>
    <g id="shape0" transform="matrix(1.0, 0.0, 0.0, 1.0, -0.05, 0.0)">
      <path d="M27.35 7.4 Q29.5 11.55 30.9 16.15 32.35 20.85 32.05 25.65 31.7 30.6 27.85 33.75 24.05 36.95 19.1 37.8 L16.5 38.0 Q12.9 38.0 9.45 36.85 4.8 35.25 2.35 31.35 -0.2 27.4 0.05 23.0 0.25 18.6 2.05 13.7 3.85 8.75 7.0 5.05 10.1 1.3 14.7 0.1 L16.5 0.0 Q18.4 0.05 20.2 0.8 24.95 2.85 27.35 7.4" fill="#ffffff" fill-rule="evenodd" stroke="none"/>
    </g>
    <g id="sprite1" transform="matrix(1.0, 0.0, 0.0, 1.0, 0.25, 0.5)">
      <use height="21.6" transform="matrix(1.0, 0.0, 0.0, 1.0, -0.25, -0.5)" width="32.65" xlink:href="#shape1"/>
    </g>
    <g id="shape1" transform="matrix(1.0, 0.0, 0.0, 1.0, 0.25, 0.5)">
      <path d="M31.9 20.6 Q31.6 18.35 30.9 16.15 29.5 11.55 27.35 7.4 24.95 2.85 20.2 0.8 17.55 -0.3 14.7 0.1 10.1 1.3 7.0 5.05 3.85 8.75 2.05 13.7 0.7 17.3 0.25 20.6" fill="none" stroke="#000000" stroke-linecap="round" stroke-linejoin="round" stroke-width="1.0"/>
    </g>
    <g id="sprite2" transform="matrix(1.0, 0.0, 0.0, 1.0, 0.5, 0.5)">
      <use height="18.95" transform="matrix(1.0, 0.0, 0.0, 1.0, -0.5, -0.5)" width="17.15" xlink:href="#shape2"/>
    </g>
    <g id="shape2" transform="matrix(1.0, 0.0, 0.0, 1.0, 0.5, 0.5)">
      <path d="M15.9 0.0 L16.15 1.8 16.15 5.65 Q15.9 8.85 14.25 11.3 9.95 14.4 5.65 14.6 L7.25 13.6 6.4 10.9 9.6 9.9 9.35 5.1 6.35 6.6 2.95 8.25 1.7 6.65 0.05 4.55 0.0 4.6 0.0 4.2 0.4 4.3 15.9 0.0 M0.0 9.3 L0.0 8.8 0.75 8.85 Q1.7 8.0 1.7 6.65 L2.95 8.25 6.35 6.6 1.65 14.95 Q1.8 12.2 0.6 9.4 L0.0 9.3 M16.15 1.8 L9.35 5.1 16.15 1.8" fill="#ffffff" fill-rule="evenodd" stroke="none"/>
      <path d="M1.65 14.95 L6.35 6.6 9.35 5.1 9.6 9.9 6.4 10.9 7.25 13.6 5.65 14.6 0.2 17.95 1.65 14.95" fill="url(#gradient0)" fill-rule="evenodd" stroke="none"/>
      <path d="M0.0 17.65 L0.0 9.3 0.6 9.4 Q1.8 12.2 1.65 14.95 L0.2 17.95 0.0 17.65 M0.0 8.8 L0.0 4.6 0.05 4.55 1.7 6.65 Q1.7 8.0 0.75 8.85 L0.0 8.8" fill="#01748f" fill-rule="evenodd" stroke="none"/>
      <path d="M0.2 17.95 L0.0 17.95 0.0 17.65 0.2 17.95" fill="url(#gradient1)" fill-rule="evenodd" stroke="none"/>
      <path d="M14.25 11.3 L11.95 13.75 Q8.15 16.95 3.2 17.8 L1.75 17.95 0.2 17.95 5.65 14.6 Q9.95 14.4 14.25 11.3" fill="#c4e1ff" fill-rule="evenodd" stroke="none"/>
      <path d="M15.9 0.0 L16.15 1.8 16.15 5.65 Q15.9 8.85 14.25 11.3 L11.95 13.75 Q8.15 16.95 3.2 17.8 L1.75 17.95 0.2 17.95" fill="none" stroke="#000000" stroke-linecap="round" stroke-linejoin="round" stroke-width="1.0"/>
      <path d="M0.0 4.2 L0.4 4.3 15.9 0.0 M1.7 6.65 L0.05 4.55 0.0 4.6 M6.35 6.6 L2.95 8.25 1.7 6.65 M6.35 6.6 L9.35 5.1 16.15 1.8" fill="none" stroke="#adc0d6" stroke-linecap="round" stroke-linejoin="round" stroke-width="1.0"/>
    </g>
    <linearGradient gradientTransform="matrix(0.0041, -0.0041, 0.0055, 0.0055, 4.9, 11.55)" gradientUnits="userSpaceOnUse" id="gradient0" spreadMethod="pad" x1="-819.2" x2="819.2">
      <stop offset="0.0" stop-color="#01748f"/>
      <stop offset="0.2549019607843137" stop-color="#0099cc"/>
      <stop offset="0.6666666666666666" stop-color="#9ef2fe"/>
      <stop offset="1.0" stop-color="#0099cc"/>
    </linearGradient>
    <linearGradient gradientTransform="matrix(-0.003, -0.0053, 0.007, -0.004, -4.8, 11.35)" gradientUnits="userSpaceOnUse" id="gradient1" spreadMethod="pad" x1="-819.2" x2="819.2">
      <stop offset="0.0" stop-color="#01748f"/>
      <stop offset="0.2549019607843137" stop-color="#0099cc"/>
      <stop offset="0.6666666666666666" stop-color="#9ef2fe"/>
      <stop offset="1.0" stop-color="#0099cc"/>
    </linearGradient>
    <g id="sprite3" transform="matrix(1.0, 0.0, 0.0, 1.0, 3.6, 3.35)">
      <use height="6.55" transform="matrix(1.0, 0.0, 0.0, 1.0, -3.6, -3.35)" width="7.15" xlink:href="#shape3"/>
    </g>
    <g id="shape3" transform="matrix(1.0, 0.0, 0.0, 1.0, 3.6, 3.35)">
      <path d="M0.45 -0.7 Q-0.05 0.4 -1.0 -0.45 -1.15 -0.85 -0.9 -1.15 L-0.65 -1.45 -0.55 -1.5 -0.3 -1.5 -0.3 -1.55 Q0.35 -1.45 0.45 -0.85 L0.45 -0.7 M2.05 -1.35 Q2.85 -0.85 2.0 0.0 L1.7 0.15 1.0 -0.25 0.95 -0.55 0.95 -1.0 Q1.15 -1.45 1.6 -1.5 L1.7 -1.5 1.7 -1.55 2.05 -1.35 M0.85 1.1 Q0.35 2.2 -0.6 1.35 -0.75 0.95 -0.5 0.65 L-0.25 0.35 -0.15 0.3 0.1 0.3 0.1 0.25 Q0.75 0.35 0.85 0.95 L0.85 1.1" fill="#ffabff" fill-rule="evenodd" stroke="none"/>
      <path d="M0.45 -0.7 L0.45 -0.85 Q0.35 -1.45 -0.3 -1.55 L-0.3 -1.5 -0.55 -1.5 -0.65 -1.45 -0.9 -1.15 Q-1.15 -0.85 -1.0 -0.45 -0.05 0.4 0.45 -0.7 M1.6 -1.5 Q1.15 -1.45 0.95 -1.0 L0.95 -0.55 1.0 -0.25 1.7 0.15 2.0 0.0 Q2.85 -0.85 2.05 -1.35 3.25 -1.1 3.5 0.3 3.7 1.5 2.55 1.4 L2.35 1.4 Q2.7 2.05 1.7 3.05 L0.6 3.2 -0.4 2.25 Q-1.25 2.7 -2.45 2.55 L-2.8 2.35 -2.85 2.05 -2.85 1.6 -2.5 1.15 -3.5 0.7 -3.6 0.35 Q-3.35 -1.2 -1.65 -1.35 -2.05 -2.05 -1.1 -2.8 L-0.1 -3.35 Q2.4 -3.25 1.6 -1.5 M0.85 1.1 L0.85 0.95 Q0.75 0.35 0.1 0.25 L0.1 0.3 -0.15 0.3 -0.25 0.35 -0.5 0.65 Q-0.75 0.95 -0.6 1.35 0.35 2.2 0.85 1.1" fill="#ff45cc" fill-rule="evenodd" stroke="none"/>
    </g>
  </defs>
</svg>
